src/core/icon/remix/tiktok-line.svg

<svg xmlns="http://www.w3.org/2000/svg" width="24" height="24" viewBox="0 0 24 24">
    <title>tiktok-line</title>
    <g id="tiktok-line" stroke="none" stroke-width="1" fill="none" fill-rule="evenodd">
        <path d="M17.9980014,10.6641488 C17.8834134,10.6752651 17.7683721,10.681091 17.6532456,10.6816076 C16.3904607,10.6817836 15.212698,10.046324 14.5209643,8.99159121 L14.5209643,14.746526 C14.5209643,17.0956548 12.6134814,19 10.2604821,19 C7.9074828,19 5.99999996,17.0956548 5.99999996,14.746526 C5.99999996,12.3973972 7.9074828,10.4930521 10.2604821,10.4930521 C10.3494191,10.4930521 10.4363575,10.5010332 10.5237956,10.5065203 L10.5237956,12.6025796 C10.4363575,12.5921043 10.3504184,12.5761419 10.2604821,12.5761419 C9.05956116,12.5761419 8.08602236,13.5480793 8.08602236,14.7470248 C8.08602236,15.9459704 9.05956116,16.9179078 10.2604821,16.9179078 C11.4616313,16.9179078 12.5223799,15.9731347 12.5223799,14.7739613 L12.5433651,4.99999996 L14.5519423,4.99999996 C14.7413438,6.79822869 16.1936978,8.20281001 18,8.33463974 L18,10.6641488" id="🎨-couleur-icône" fill="#242424"></path>
    </g>
</svg>

<svg xmlns="http://www.w3.org/2000/svg" width="24" height="24" viewBox="0 0 24 24"><path fill="currentColor" fill-rule="evenodd" d="M17.998 10.664a3.745 3.745 0 0 1-3.477-1.673v5.756A4.257 4.257 0 0 1 10.261 19 4.257 4.257 0 0 1 6 14.747a4.257 4.257 0 0 1 4.26-4.254c.09 0 .176.008.264.014v2.096c-.088-.01-.174-.027-.264-.027-1.2 0-2.174.972-2.174 2.171 0 1.199.974 2.17 2.174 2.17 1.202 0 2.262-.944 2.262-2.143L12.543 5h2.009A3.739 3.739 0 0 0 18 8.335v2.33"/></svg>
